X: 40384
T: Tom Hark
R: hornpipe
M: 4/4
K: Gmajor
D|:"G"G>AB2G3D|"D7"A>Bc2A3D|F>GA2 F3D|1 "G"G>AB2 G2D<E:|2 "D7"A>GF2"G"G2z2||
|:"G"g>gf2e2d2|"D7"cB3A4|f>fe2d2c2|"G"BA3G4:|
"G"d>ed2B2B2|d>ed2"D7"c4|d>ed2c2c2|d>ed2"G"B4|
d>ed2B2B2|d>ed2"D7"c4|c>dc2A2A>c|c>BA2"G"G2D<E||
"G"G2BB2AB2|"D7"E2cc2Bc2|"G"D2BB2AB2|"D7"A>B AD2DE>F|
"G"G2BB2AB2|"D7"E2cc2Bc2|"D7"d>ed2e2f2|"G"g2b2g2D||

